Newaita-dark/apps/64/preferences-system-parental-controls.svg

<svg height="64pt" viewBox="0 0 64 64" width="64pt" xmlns="http://www.w3.org/2000/svg" xmlns:xlink="http://www.w3.org/1999/xlink"><linearGradient id="a" gradientUnits="userSpaceOnUse" x1="31.75304" x2="31.75304" y1="56.067872" y2="58.71396000006"><stop offset="0" stop-opacity=".27451"/><stop offset="1" stop-opacity="0"/></linearGradient><linearGradient id="b"><stop offset="0" stop-opacity=".313726"/><stop offset=".222222" stop-opacity=".27451"/><stop offset="1" stop-opacity="0"/></linearGradient><radialGradient id="c" cx="450.908936" cy="189.579361" gradientTransform="matrix(.00000035 -.156265 -.281277 -.0000002 106.24586 127.190665)" gradientUnits="userSpaceOnUse" r="21.166656" xlink:href="#b"/><radialGradient id="d" cx="450.908936" cy="189.579361" gradientTransform="matrix(-.00000035 .156265 .281277 .0000002 -42.409041 -15.054958)" gradientUnits="userSpaceOnUse" r="21.166656" xlink:href="#b"/><radialGradient id="e" cx="450.908936" cy="189.579361" gradientTransform="matrix(-.00000035 -.156265 .281277 -.0000002 -42.409041 127.190665)" gradientUnits="userSpaceOnUse" r="21.166656" xlink:href="#b"/><radialGradient id="f" cx="450.908936" cy="189.579361" gradientTransform="matrix(.00000035 .156265 -.281277 .0000002 106.245857 -15.054959)" gradientUnits="userSpaceOnUse" r="21.166656" xlink:href="#b"/><linearGradient id="g" gradientUnits="userSpaceOnUse" x1="31.753048" x2="31.753048" y1="5.79220900013" y2="56.067867"><stop offset="0" stop-color="#ffb74d"/><stop offset="1" stop-color="#ffa726"/></linearGradient><linearGradient id="h" gradientUnits="userSpaceOnUse" x1="31.753056" x2="31.753056" y1="56.06789790428" y2="5.79222438278"><stop offset="0" stop-color="#424242"/><stop offset="1" stop-color="#616161"/></linearGradient><path d="m10.253906 56.066406h43.328125v2.648438h-43.328125zm0 0" fill="url(#a)"/><path d="m53.582031 56.066406h5.292969v-2.644531h-5.292969zm0 0" fill="url(#c)"/><path d="m10.253906 56.066406h-5.292968v2.648438h5.292968zm0 0" fill="url(#d)"/><path d="m10.253906 56.066406h-5.292968v-2.644531h5.292968zm0 0" fill="url(#e)"/><path d="m53.582031 56.066406h5.292969v2.648438h-5.292969zm0 0" fill="url(#f)"/><path d="m7.277344 5.792969h48.953125c1.09375 0 1.984375.886719 1.984375 1.984375v46.304687c0 1.097657-.890625 1.984375-1.984375 1.984375h-48.953125c-1.097656 0-1.984375-.886718-1.984375-1.984375v-46.304687c0-1.097656.886719-1.984375 1.984375-1.984375zm0 0" fill="url(#g)"/><path d="m7.277344 5.792969c-1.101563 0-1.984375.882812-1.984375 1.984375v.742187c0-1.097656.882812-1.984375 1.984375-1.984375h48.953125c1.097656 0 1.984375.886719 1.984375 1.984375v-.742187c0-1.101563-.886719-1.984375-1.984375-1.984375zm0 0" fill="#fff" fill-opacity=".392157"/><path d="m7.277344 55.984375c-1.101563 0-1.984375-.886719-1.984375-1.984375v-.742188c0 1.097657.882812 1.984376 1.984375 1.984376h48.953125c1.097656 0 1.984375-.886719 1.984375-1.984376v.742188c0 1.097656-.886719 1.984375-1.984375 1.984375zm0 0" fill-opacity=".235294"/><path d="m7.277344 5.605469c-1.199219 0-2.171875.972656-2.171875 2.171875v46.304687c0 1.203125.972656 2.171875 2.171875 2.171875h48.953125c1.199219 0 2.171875-.96875 2.171875-2.171875v-46.304687c0-1.199219-.972656-2.171875-2.171875-2.171875zm0 .375h48.953125c.996093 0 1.796875.796875 1.796875 1.796875v46.304687c0 1-.800782 1.796875-1.796875 1.796875h-48.953125c-1 0-1.796875-.796875-1.796875-1.796875v-46.304687c0-1 .796875-1.796875 1.796875-1.796875zm0 0" fill="#212121"/><path d="m27.453125 15.054688c-3.296875 0-5.953125 2.652343-5.953125 5.953124 0 3.296876 2.65625 5.953126 5.953125 5.953126s5.953125-2.65625 5.953125-5.953126c0-3.300781-2.65625-5.953124-5.953125-5.953124zm11.246094 10.582031c-2.472657 0-4.464844 1.992187-4.464844 4.464843 0 2.476563 1.992187 4.46875 4.464844 4.46875 2.472656 0 4.464843-1.992187 4.464843-4.46875 0-2.472656-1.992187-4.464843-4.464843-4.464843zm-16.746094 2.648437c-2.667969 1.0625-4.421875 2.882813-4.421875 4.960938v5.292968c0 3.296876 4.425781 5.953126 9.921875 5.953126.621094 0 1.230469-.035157 1.820313-.101563-.203126-.53125-.316407-1.101563-.316407-1.703125v-4.019531c0-2.519531 1.859375-4.367188 4.117188-5.40625-.53125-.9375-.835938-2.015625-.835938-3.160157 0-.507812.058594-1.003906.171875-1.480468-1.457031.835937-3.148437 1.316406-4.957031 1.316406-2.039063 0-3.925781-.609375-5.5-1.652344zm12.359375 6.613282c-2.027344.808593-3.355469 2.191406-3.355469 3.769531v4.019531c0 2.503906 3.359375 4.519531 7.535157 4.519531 4.171874 0 7.535156-2.015625 7.535156-4.519531v-4.019531c0-1.578125-1.332032-2.960938-3.359375-3.769531-1.195313.792968-2.628907 1.257812-4.175781 1.257812-1.546876 0-2.984376-.464844-4.179688-1.257812zm0 0" fill="url(#h)"/><path d="m27.453125 15.054688c-3.296875 0-5.953125 2.652343-5.953125 5.953124 0 .109376.003906.21875.007812.332032.171876-3.144532 2.757813-5.625 5.945313-5.625s5.773437 2.480468 5.945313 5.625c.003906-.113282.007812-.222656.007812-.332032 0-3.300781-2.65625-5.953124-5.953125-5.953124zm11.246094 10.582031c-2.472657 0-4.464844 1.992187-4.464844 4.464843 0 .113282.003906.222657.011719.332032.167968-2.316406 2.089844-4.132813 4.453125-4.132813s4.285156 1.816407 4.453125 4.132813c.007812-.109375.011718-.21875.011718-.332032 0-2.472656-1.992187-4.464843-4.464843-4.464843zm-16.746094 2.648437c-2.667969 1.0625-4.421875 2.882813-4.421875 4.960938v.660156c0-2.074219 1.753906-3.894531 4.421875-4.960938 1.574219 1.046876 3.460937 1.652344 5.5 1.652344 1.753906 0 3.398437-.449218 4.828125-1.242187.027344-.25.074219-.496094.128906-.734375-1.457031.835937-3.148437 1.316406-4.957031 1.316406-2.039063 0-3.925781-.609375-5.5-1.652344zm10.292969 2.152344c-.007813.109375-.007813.21875-.007813.328125 0 .933594.203125 1.820313.566407 2.625.089843-.046875.179687-.089844.269531-.128906-.476563-.847657-.773438-1.804688-.828125-2.824219zm2.066406 4.460938c-2.027344.808593-3.355469 2.191406-3.355469 3.769531v.660156c0-1.574219 1.328125-2.957031 3.355469-3.765625 1.195312.792969 2.632812 1.253906 4.179688 1.253906 1.546874 0 2.980468-.460937 4.175781-1.253906 2.027343.808594 3.359375 2.191406 3.359375 3.765625v-.660156c0-1.578125-1.332032-2.960938-3.359375-3.769531-1.195313.792968-2.628907 1.257812-4.175781 1.257812-1.546876 0-2.984376-.464844-4.179688-1.257812zm-5.355469 7.789062v.660156c0 .367188.042969.722656.121094 1.0625.066406-.003906.128906-.011718.195313-.019531-.203126-.53125-.316407-1.101563-.316407-1.703125zm0 0" fill="#fff" fill-opacity=".392157"/><path d="m21.519531 21.601562c-.011719.164063-.019531.328126-.019531.496094 0 3.300782 2.65625 5.953125 5.953125 5.953125s5.953125-2.652343 5.953125-5.953125c0-.167968-.007812-.332031-.019531-.496094-.25 3.066407-2.800781 5.457032-5.933594 5.457032s-5.683594-2.390625-5.933594-5.457032zm10.890625 8.109376c-.054687.03125-.113281.066406-.171875.097656v.0625c0 .222656.011719.445312.03125.664062.03125-.28125.078125-.554687.140625-.824218zm1.851563.988281c-.019531.160156-.027344.328125-.027344.496093 0 2.472657 1.992187 4.464844 4.464844 4.464844 2.472656 0 4.464843-1.992187 4.464843-4.464844 0-.167968-.007812-.335937-.027343-.496093-.246094 2.238281-2.132813 3.96875-4.4375 3.96875-2.304688 0-4.191407-1.730469-4.4375-3.96875zm-1.574219 2.847656c-2.078125 1.066406-3.730469 2.847656-3.730469 5.21875v.992187c0-2.515624 1.859375-4.367187 4.117188-5.40625-.144531-.257812-.273438-.527343-.386719-.804687zm-15.15625 5.089844v.992187c0 3.296875 4.425781 5.953125 9.921875 5.953125.621094 0 1.230469-.035156 1.820313-.097656-.117188-.308594-.203126-.632813-.257813-.96875-.507813.050781-1.03125.074219-1.5625.074219-5.496094 0-9.921875-2.65625-9.921875-5.953125zm13.425781 4.148437v.992188c0 2.503906 3.359375 4.523437 7.535157 4.523437 4.171874 0 7.535156-2.019531 7.535156-4.523437v-.992188c0 2.503906-3.363282 4.523438-7.535156 4.523438-4.175782 0-7.535157-2.019532-7.535157-4.523438zm0 0" fill-opacity=".235294"/><path d="m829.999523 455.153409c-99.675526 0-179.982822 80.189197-179.982822 179.982822 0 99.675526 80.307296 179.982822 179.982822 179.982822s179.982822-80.307296 179.982822-179.982822c0-99.793625-80.307296-179.982822-179.982822-179.982822zm340.006919 319.930095c-74.756645 0-134.987117 60.230472-134.987117 134.987117 0 74.874743 60.230472 135.105215 134.987117 135.105215 74.756644 0 134.987116-60.230472 134.987116-135.105215 0-74.756645-60.230472-134.987117-134.987116-134.987117zm-506.290261 80.071098c-80.661593 32.122919-133.688028 87.157036-133.688028 149.985685v160.024097c0 99.675526 133.806127 179.982822 299.97137 179.982822 18.777735 0 37.201174-1.062891 55.034117-3.070573-6.141146-16.061459-9.566016-33.303908-9.566016-51.491148v-121.523835c0-76.173832 56.215107-132.034642 124.476309-163.448967-16.061459-28.343751-25.273179-60.939066-25.273179-95.542062 0-15.352866 1.771485-30.351434 5.196355-44.759508-44.050914 25.273179-95.187766 39.799351-149.867586 39.799351-61.64766 0-118.68946-18.423438-166.283342-49.955862zm373.665124 199.941547c-61.293363 24.446486-101.447011 66.253519-101.447011 113.965501v121.523835c0 75.701436 101.565109 136.640501 227.812903 136.640501 126.129694 0 227.812902-60.939065 227.812902-136.640501v-121.523835c0-47.711982-40.271747-89.519015-101.565109-113.965501-36.138283 23.97409-79.480603 38.027867-126.247793 38.027867s-90.227609-14.053777-126.365892-38.027867zm0 0" fill="none" stroke="#212121" stroke-linecap="round" stroke-linejoin="round" stroke-width="11.338583" transform="scale(.0330761)"/></svg>

<?xml version="1.0" encoding="UTF-8"?>
<svg xmlns="http://www.w3.org/2000/svg" xmlns:xlink="http://www.w3.org/1999/xlink" width="64pt" height="64pt" viewBox="0 0 64 64" version="1.1">
<defs>
<linearGradient id="linear0" gradientUnits="userSpaceOnUse" x1="254" y1="233.5" x2="254" y2="254.666672" gradientTransform="matrix(0.125012,0,0,0.125012,-0.00000763012,26.87757)">
<stop offset="0" style="stop-color:rgb(0%,0%,0%);stop-opacity:0.27451;"/>
<stop offset="1" style="stop-color:rgb(0%,0%,0%);stop-opacity:0;"/>
</linearGradient>
<radialGradient id="radial0" gradientUnits="userSpaceOnUse" cx="450.908936" cy="189.579361" fx="450.908936" fy="189.579361" r="21.166656" gradientTransform="matrix(0.000000348341,-0.156265,-0.281277,-0.000000203077,106.24586,127.190665)">
<stop offset="0" style="stop-color:rgb(0%,0%,0%);stop-opacity:0.313726;"/>
<stop offset="0.222222" style="stop-color:rgb(0%,0%,0%);stop-opacity:0.27451;"/>
<stop offset="1" style="stop-color:rgb(0%,0%,0%);stop-opacity:0;"/>
</radialGradient>
<radialGradient id="radial1" gradientUnits="userSpaceOnUse" cx="450.908936" cy="189.579361" fx="450.908936" fy="189.579361" r="21.166656" gradientTransform="matrix(-0.000000348341,0.156265,0.281277,0.000000203077,-42.409041,-15.054958)">
<stop offset="0" style="stop-color:rgb(0%,0%,0%);stop-opacity:0.313726;"/>
<stop offset="0.222222" style="stop-color:rgb(0%,0%,0%);stop-opacity:0.27451;"/>
<stop offset="1" style="stop-color:rgb(0%,0%,0%);stop-opacity:0;"/>
</radialGradient>
<radialGradient id="radial2" gradientUnits="userSpaceOnUse" cx="450.908936" cy="189.579361" fx="450.908936" fy="189.579361" r="21.166656" gradientTransform="matrix(-0.000000348341,-0.156265,0.281277,-0.000000203077,-42.409041,127.190665)">
<stop offset="0" style="stop-color:rgb(0%,0%,0%);stop-opacity:0.313726;"/>
<stop offset="0.222222" style="stop-color:rgb(0%,0%,0%);stop-opacity:0.27451;"/>
<stop offset="1" style="stop-color:rgb(0%,0%,0%);stop-opacity:0;"/>
</radialGradient>
<radialGradient id="radial3" gradientUnits="userSpaceOnUse" cx="450.908936" cy="189.579361" fx="450.908936" fy="189.579361" r="21.166656" gradientTransform="matrix(0.000000348341,0.156265,-0.281277,0.000000203077,106.245857,-15.054959)">
<stop offset="0" style="stop-color:rgb(0%,0%,0%);stop-opacity:0.313726;"/>
<stop offset="0.222222" style="stop-color:rgb(0%,0%,0%);stop-opacity:0.27451;"/>
<stop offset="1" style="stop-color:rgb(0%,0%,0%);stop-opacity:0;"/>
</radialGradient>
<linearGradient id="linear1" gradientUnits="userSpaceOnUse" x1="254" y1="-168.666656" x2="254" y2="233.5" gradientTransform="matrix(0.125012,0,0,0.125012,0,26.877565)">
<stop offset="0" style="stop-color:rgb(100%,71.764708%,30.19608%);stop-opacity:1;"/>
<stop offset="1" style="stop-color:rgb(100%,65.490198%,14.901961%);stop-opacity:1;"/>
</linearGradient>
<linearGradient id="linear2" gradientUnits="userSpaceOnUse" x1="960" y1="1695.118164" x2="960" y2="175.118118" gradientTransform="matrix(0.0330761,0,0,0.0330761,0,0)">
<stop offset="0" style="stop-color:rgb(25.882354%,25.882354%,25.882354%);stop-opacity:1;"/>
<stop offset="1" style="stop-color:rgb(38.039216%,38.039216%,38.039216%);stop-opacity:1;"/>
</linearGradient>
</defs>
<g id="surface1">
<path style=" stroke:none;fill-rule:nonzero;fill:url(#linear0);" d="M 10.253906 56.066406 L 53.582031 56.066406 L 53.582031 58.714844 L 10.253906 58.714844 Z M 10.253906 56.066406 "/>
<path style=" stroke:none;fill-rule:nonzero;fill:url(#radial0);" d="M 53.582031 56.066406 L 58.875 56.066406 L 58.875 53.421875 L 53.582031 53.421875 Z M 53.582031 56.066406 "/>
<path style=" stroke:none;fill-rule:nonzero;fill:url(#radial1);" d="M 10.253906 56.066406 L 4.960938 56.066406 L 4.960938 58.714844 L 10.253906 58.714844 Z M 10.253906 56.066406 "/>
<path style=" stroke:none;fill-rule:nonzero;fill:url(#radial2);" d="M 10.253906 56.066406 L 4.960938 56.066406 L 4.960938 53.421875 L 10.253906 53.421875 Z M 10.253906 56.066406 "/>
<path style=" stroke:none;fill-rule:nonzero;fill:url(#radial3);" d="M 53.582031 56.066406 L 58.875 56.066406 L 58.875 58.714844 L 53.582031 58.714844 Z M 53.582031 56.066406 "/>
<path style=" stroke:none;fill-rule:nonzero;fill:url(#linear1);" d="M 7.277344 5.792969 L 56.230469 5.792969 C 57.324219 5.792969 58.214844 6.679688 58.214844 7.777344 L 58.214844 54.082031 C 58.214844 55.179688 57.324219 56.066406 56.230469 56.066406 L 7.277344 56.066406 C 6.179688 56.066406 5.292969 55.179688 5.292969 54.082031 L 5.292969 7.777344 C 5.292969 6.679688 6.179688 5.792969 7.277344 5.792969 Z M 7.277344 5.792969 "/>
<path style=" stroke:none;fill-rule:nonzero;fill:rgb(100%,100%,100%);fill-opacity:0.392157;" d="M 7.277344 5.792969 C 6.175781 5.792969 5.292969 6.675781 5.292969 7.777344 L 5.292969 8.519531 C 5.292969 7.421875 6.175781 6.535156 7.277344 6.535156 L 56.230469 6.535156 C 57.328125 6.535156 58.214844 7.421875 58.214844 8.519531 L 58.214844 7.777344 C 58.214844 6.675781 57.328125 5.792969 56.230469 5.792969 Z M 7.277344 5.792969 "/>
<path style=" stroke:none;fill-rule:nonzero;fill:rgb(0%,0%,0%);fill-opacity:0.235294;" d="M 7.277344 55.984375 C 6.175781 55.984375 5.292969 55.097656 5.292969 54 L 5.292969 53.257812 C 5.292969 54.355469 6.175781 55.242188 7.277344 55.242188 L 56.230469 55.242188 C 57.328125 55.242188 58.214844 54.355469 58.214844 53.257812 L 58.214844 54 C 58.214844 55.097656 57.328125 55.984375 56.230469 55.984375 Z M 7.277344 55.984375 "/>
<path style=" stroke:none;fill-rule:nonzero;fill:rgb(12.941177%,12.941177%,12.941177%);fill-opacity:1;" d="M 7.277344 5.605469 C 6.078125 5.605469 5.105469 6.578125 5.105469 7.777344 L 5.105469 54.082031 C 5.105469 55.285156 6.078125 56.253906 7.277344 56.253906 L 56.230469 56.253906 C 57.429688 56.253906 58.402344 55.285156 58.402344 54.082031 L 58.402344 7.777344 C 58.402344 6.578125 57.429688 5.605469 56.230469 5.605469 Z M 7.277344 5.980469 L 56.230469 5.980469 C 57.226562 5.980469 58.027344 6.777344 58.027344 7.777344 L 58.027344 54.082031 C 58.027344 55.082031 57.226562 55.878906 56.230469 55.878906 L 7.277344 55.878906 C 6.277344 55.878906 5.480469 55.082031 5.480469 54.082031 L 5.480469 7.777344 C 5.480469 6.777344 6.277344 5.980469 7.277344 5.980469 Z M 7.277344 5.980469 "/>
<path style=" stroke:none;fill-rule:nonzero;fill:url(#linear2);" d="M 27.453125 15.054688 C 24.15625 15.054688 21.5 17.707031 21.5 21.007812 C 21.5 24.304688 24.15625 26.960938 27.453125 26.960938 C 30.75 26.960938 33.40625 24.304688 33.40625 21.007812 C 33.40625 17.707031 30.75 15.054688 27.453125 15.054688 Z M 38.699219 25.636719 C 36.226562 25.636719 34.234375 27.628906 34.234375 30.101562 C 34.234375 32.578125 36.226562 34.570312 38.699219 34.570312 C 41.171875 34.570312 43.164062 32.578125 43.164062 30.101562 C 43.164062 27.628906 41.171875 25.636719 38.699219 25.636719 Z M 21.953125 28.285156 C 19.285156 29.347656 17.53125 31.167969 17.53125 33.246094 L 17.53125 38.539062 C 17.53125 41.835938 21.957031 44.492188 27.453125 44.492188 C 28.074219 44.492188 28.683594 44.457031 29.273438 44.390625 C 29.070312 43.859375 28.957031 43.289062 28.957031 42.6875 L 28.957031 38.667969 C 28.957031 36.148438 30.816406 34.300781 33.074219 33.261719 C 32.542969 32.324219 32.238281 31.246094 32.238281 30.101562 C 32.238281 29.59375 32.296875 29.097656 32.410156 28.621094 C 30.953125 29.457031 29.261719 29.9375 27.453125 29.9375 C 25.414062 29.9375 23.527344 29.328125 21.953125 28.285156 Z M 34.3125 34.898438 C 32.285156 35.707031 30.957031 37.089844 30.957031 38.667969 L 30.957031 42.6875 C 30.957031 45.191406 34.316406 47.207031 38.492188 47.207031 C 42.664062 47.207031 46.027344 45.191406 46.027344 42.6875 L 46.027344 38.667969 C 46.027344 37.089844 44.695312 35.707031 42.667969 34.898438 C 41.472656 35.691406 40.039062 36.15625 38.492188 36.15625 C 36.945312 36.15625 35.507812 35.691406 34.3125 34.898438 Z M 34.3125 34.898438 "/>
<path style=" stroke:none;fill-rule:nonzero;fill:rgb(100%,100%,100%);fill-opacity:0.392157;" d="M 27.453125 15.054688 C 24.15625 15.054688 21.5 17.707031 21.5 21.007812 C 21.5 21.117188 21.503906 21.226562 21.507812 21.339844 C 21.679688 18.195312 24.265625 15.714844 27.453125 15.714844 C 30.640625 15.714844 33.226562 18.195312 33.398438 21.339844 C 33.402344 21.226562 33.40625 21.117188 33.40625 21.007812 C 33.40625 17.707031 30.75 15.054688 27.453125 15.054688 Z M 38.699219 25.636719 C 36.226562 25.636719 34.234375 27.628906 34.234375 30.101562 C 34.234375 30.214844 34.238281 30.324219 34.246094 30.433594 C 34.414062 28.117188 36.335938 26.300781 38.699219 26.300781 C 41.0625 26.300781 42.984375 28.117188 43.152344 30.433594 C 43.160156 30.324219 43.164062 30.214844 43.164062 30.101562 C 43.164062 27.628906 41.171875 25.636719 38.699219 25.636719 Z M 21.953125 28.285156 C 19.285156 29.347656 17.53125 31.167969 17.53125 33.246094 L 17.53125 33.90625 C 17.53125 31.832031 19.285156 30.011719 21.953125 28.945312 C 23.527344 29.992188 25.414062 30.597656 27.453125 30.597656 C 29.207031 30.597656 30.851562 30.148438 32.28125 29.355469 C 32.308594 29.105469 32.355469 28.859375 32.410156 28.621094 C 30.953125 29.457031 29.261719 29.9375 27.453125 29.9375 C 25.414062 29.9375 23.527344 29.328125 21.953125 28.285156 Z M 32.246094 30.4375 C 32.238281 30.546875 32.238281 30.65625 32.238281 30.765625 C 32.238281 31.699219 32.441406 32.585938 32.804688 33.390625 C 32.894531 33.34375 32.984375 33.300781 33.074219 33.261719 C 32.597656 32.414062 32.300781 31.457031 32.246094 30.4375 Z M 34.3125 34.898438 C 32.285156 35.707031 30.957031 37.089844 30.957031 38.667969 L 30.957031 39.328125 C 30.957031 37.753906 32.285156 36.371094 34.3125 35.5625 C 35.507812 36.355469 36.945312 36.816406 38.492188 36.816406 C 40.039062 36.816406 41.472656 36.355469 42.667969 35.5625 C 44.695312 36.371094 46.027344 37.753906 46.027344 39.328125 L 46.027344 38.667969 C 46.027344 37.089844 44.695312 35.707031 42.667969 34.898438 C 41.472656 35.691406 40.039062 36.15625 38.492188 36.15625 C 36.945312 36.15625 35.507812 35.691406 34.3125 34.898438 Z M 28.957031 42.6875 L 28.957031 43.347656 C 28.957031 43.714844 29 44.070312 29.078125 44.410156 C 29.144531 44.40625 29.207031 44.398438 29.273438 44.390625 C 29.070312 43.859375 28.957031 43.289062 28.957031 42.6875 Z M 28.957031 42.6875 "/>
<path style=" stroke:none;fill-rule:nonzero;fill:rgb(0%,0%,0%);fill-opacity:0.235294;" d="M 21.519531 21.601562 C 21.507812 21.765625 21.5 21.929688 21.5 22.097656 C 21.5 25.398438 24.15625 28.050781 27.453125 28.050781 C 30.75 28.050781 33.40625 25.398438 33.40625 22.097656 C 33.40625 21.929688 33.398438 21.765625 33.386719 21.601562 C 33.136719 24.667969 30.585938 27.058594 27.453125 27.058594 C 24.320312 27.058594 21.769531 24.667969 21.519531 21.601562 Z M 32.410156 29.710938 C 32.355469 29.742188 32.296875 29.777344 32.238281 29.808594 C 32.238281 29.828125 32.238281 29.851562 32.238281 29.871094 C 32.238281 30.09375 32.25 30.316406 32.269531 30.535156 C 32.300781 30.253906 32.347656 29.980469 32.410156 29.710938 Z M 34.261719 30.699219 C 34.242188 30.859375 34.234375 31.027344 34.234375 31.195312 C 34.234375 33.667969 36.226562 35.660156 38.699219 35.660156 C 41.171875 35.660156 43.164062 33.667969 43.164062 31.195312 C 43.164062 31.027344 43.15625 30.859375 43.136719 30.699219 C 42.890625 32.9375 41.003906 34.667969 38.699219 34.667969 C 36.394531 34.667969 34.507812 32.9375 34.261719 30.699219 Z M 32.6875 33.546875 C 30.609375 34.613281 28.957031 36.394531 28.957031 38.765625 L 28.957031 39.757812 C 28.957031 37.242188 30.816406 35.390625 33.074219 34.351562 C 32.929688 34.09375 32.800781 33.824219 32.6875 33.546875 Z M 17.53125 38.636719 L 17.53125 39.628906 C 17.53125 42.925781 21.957031 45.582031 27.453125 45.582031 C 28.074219 45.582031 28.683594 45.546875 29.273438 45.484375 C 29.15625 45.175781 29.070312 44.851562 29.015625 44.515625 C 28.507812 44.566406 27.984375 44.589844 27.453125 44.589844 C 21.957031 44.589844 17.53125 41.933594 17.53125 38.636719 Z M 30.957031 42.785156 L 30.957031 43.777344 C 30.957031 46.28125 34.316406 48.300781 38.492188 48.300781 C 42.664062 48.300781 46.027344 46.28125 46.027344 43.777344 L 46.027344 42.785156 C 46.027344 45.289062 42.664062 47.308594 38.492188 47.308594 C 34.316406 47.308594 30.957031 45.289062 30.957031 42.785156 Z M 30.957031 42.785156 "/>
<path style="fill:none;stroke-width:11.338583;stroke-linecap:round;stroke-linejoin:round;stroke:rgb(12.941177%,12.941177%,12.941177%);stroke-opacity:1;stroke-miterlimit:4;" d="M 829.999523 455.153409 C 730.323997 455.153409 650.016701 535.342606 650.016701 635.136231 C 650.016701 734.811757 730.323997 815.119053 829.999523 815.119053 C 929.675049 815.119053 1009.982345 734.811757 1009.982345 635.136231 C 1009.982345 535.342606 929.675049 455.153409 829.999523 455.153409 Z M 1170.006442 775.083504 C 1095.249797 775.083504 1035.019325 835.313976 1035.019325 910.070621 C 1035.019325 984.945364 1095.249797 1045.175836 1170.006442 1045.175836 C 1244.763086 1045.175836 1304.993558 984.945364 1304.993558 910.070621 C 1304.993558 835.313976 1244.763086 775.083504 1170.006442 775.083504 Z M 663.716181 855.154602 C 583.054588 887.277521 530.028153 942.311638 530.028153 1005.140287 L 530.028153 1165.164384 C 530.028153 1264.83991 663.83428 1345.147206 829.999523 1345.147206 C 848.777258 1345.147206 867.200697 1344.084315 885.03364 1342.076633 C 878.892494 1326.015174 875.467624 1308.772725 875.467624 1290.585485 L 875.467624 1169.06165 C 875.467624 1092.887818 931.682731 1037.027008 999.943933 1005.612683 C 983.882474 977.268932 974.670754 944.673617 974.670754 910.070621 C 974.670754 894.717755 976.442239 879.719187 979.867109 865.311113 C 935.816195 890.584292 884.679343 905.110464 829.999523 905.110464 C 768.351863 905.110464 711.310063 886.687026 663.716181 855.154602 Z M 1037.381305 1055.096149 C 976.087942 1079.542635 935.934294 1121.349668 935.934294 1169.06165 L 935.934294 1290.585485 C 935.934294 1366.286921 1037.499403 1427.225986 1163.747197 1427.225986 C 1289.876891 1427.225986 1391.560099 1366.286921 1391.560099 1290.585485 L 1391.560099 1169.06165 C 1391.560099 1121.349668 1351.288352 1079.542635 1289.99499 1055.096149 C 1253.856707 1079.070239 1210.514387 1093.124016 1163.747197 1093.124016 C 1116.980007 1093.124016 1073.519588 1079.070239 1037.381305 1055.096149 Z M 1037.381305 1055.096149 " transform="matrix(0.0330761,0,0,0.0330761,0,0)"/>
</g>
</svg>
